(Created with Marlin post processor 2015/08/21 16:35)
G90 
(left_inner)
G0 Z40 F10000
G0 X5.651 Y7.993  
M3 S10000
G4 S3
G0 Z2  
G1 Z-0.4 F80 
G1 X4.756 Y7.993 F190 
G1 X4.554 Y8.029  
G1 X4.47 Y8.077  
G1 X4.407 Y8.152  
G1 X4.373 Y8.244  
G1 X4.373 Y8.342  
G1 X4.407 Y8.434  
G1 X4.47 Y8.509  
G1 X4.554 Y8.558  
G1 X4.756 Y8.593  
G1 X6.546 Y8.593  
G1 X6.747 Y8.558  
G1 X6.832 Y8.509  
G1 X6.894 Y8.434  
G1 X6.928 Y8.342  
G1 X6.928 Y8.244  
G1 X6.903 Y8.177  
G1 X6.894 Y8.152  
G1 X6.832 Y8.077  
G1 X6.747 Y8.029  
G1 X6.546 Y7.993  
G1 X5.651 Y7.993  
G1 Z-0.8 F80 
G1 X4.756 Y7.993 F190 
G1 X4.554 Y8.029  
G1 X4.47 Y8.077  
G1 X4.407 Y8.152  
G1 X4.373 Y8.244  
G1 X4.373 Y8.342  
G1 X4.407 Y8.434  
G1 X4.47 Y8.509  
G1 X4.554 Y8.558  
G1 X4.756 Y8.593  
G1 X6.546 Y8.593  
G1 X6.747 Y8.558  
G1 X6.832 Y8.509  
G1 X6.894 Y8.434  
G1 X6.928 Y8.342  
G1 X6.928 Y8.244  
G1 X6.903 Y8.177  
G1 X6.894 Y8.152  
G1 X6.832 Y8.077  
G1 X6.747 Y8.029  
G1 X6.546 Y7.993  
G1 X5.651 Y7.993  
G1 Z-1.2 F80 
G1 X4.756 Y7.993 F190 
G1 X4.554 Y8.029  
G1 X4.47 Y8.077  
G1 X4.407 Y8.152  
G1 X4.373 Y8.244  
G1 X4.373 Y8.342  
G1 X4.407 Y8.434  
G1 X4.47 Y8.509  
G1 X4.554 Y8.558  
G1 X4.756 Y8.593  
G1 X6.546 Y8.593  
G1 X6.747 Y8.558  
G1 X6.832 Y8.509  
G1 X6.894 Y8.434  
G1 X6.928 Y8.342  
G1 X6.928 Y8.244  
G1 X6.903 Y8.177  
G1 X6.894 Y8.152  
G1 X6.832 Y8.077  
G1 X6.747 Y8.029  
G1 X6.546 Y7.993  
G1 X5.651 Y7.993  
G1 Z-1.6 F80 
G1 X4.756 Y7.993 F190 
G1 X4.554 Y8.029  
G1 X4.47 Y8.077  
G1 X4.407 Y8.152  
G1 X4.373 Y8.244  
G1 X4.373 Y8.342  
G1 X4.407 Y8.434  
G1 X4.47 Y8.509  
G1 X4.554 Y8.558  
G1 X4.756 Y8.593  
G1 X6.546 Y8.593  
G1 X6.747 Y8.558  
G1 X6.832 Y8.509  
G1 X6.894 Y8.434  
G1 X6.928 Y8.342  
G1 X6.928 Y8.244  
G1 X6.903 Y8.177  
G1 X6.894 Y8.152  
G1 X6.832 Y8.077  
G1 X6.747 Y8.029  
G1 X6.546 Y7.993  
G1 X5.651 Y7.993  
G1 Z-2 F80 
G1 X4.756 Y7.993 F190 
G1 X4.554 Y8.029  
G1 X4.47 Y8.077  
G1 X4.407 Y8.152  
G1 X4.373 Y8.244  
G1 X4.373 Y8.342  
G1 X4.407 Y8.434  
G1 X4.47 Y8.509  
G1 X4.554 Y8.558  
G1 X4.756 Y8.593  
G1 X6.546 Y8.593  
G1 X6.747 Y8.558  
G1 X6.832 Y8.509  
G1 X6.894 Y8.434  
G1 X6.928 Y8.342  
G1 X6.928 Y8.244  
G1 X6.903 Y8.177  
G1 X6.894 Y8.152  
G1 X6.832 Y8.077  
G1 X6.747 Y8.029  
G1 X6.546 Y7.993  
G1 X5.651 Y7.993  
G0 Z30 F10000 
G90
(right_inner)
G0 X50.651 Y7.993  
M3 S10000
G4 S3
G0 Z2  
G1 Z-0.4 F80 
G1 X49.756 Y7.993 F190 
G1 X49.554 Y8.029  
G1 X49.47 Y8.077  
G1 X49.407 Y8.152  
G1 X49.373 Y8.244  
G1 X49.373 Y8.342  
G1 X49.407 Y8.434  
G1 X49.47 Y8.509  
G1 X49.554 Y8.558  
G1 X49.756 Y8.593  
G1 X51.448 Y8.593  
G1 X51.476 Y8.588  
G1 X51.647 Y8.558  
G1 X51.732 Y8.509  
G1 X51.794 Y8.434  
G1 X51.828 Y8.342  
G1 X51.828 Y8.244  
G1 X51.803 Y8.177  
G1 X51.794 Y8.152  
G1 X51.732 Y8.077  
G1 X51.647 Y8.029  
G1 X51.476 Y7.999  
G1 X51.448 Y7.993  
G1 X50.651 Y7.993  
G1 Z-0.8 F80 
G1 X49.756 Y7.993 F190 
G1 X49.554 Y8.029  
G1 X49.47 Y8.077  
G1 X49.407 Y8.152  
G1 X49.373 Y8.244  
G1 X49.373 Y8.342  
G1 X49.407 Y8.434  
G1 X49.47 Y8.509  
G1 X49.554 Y8.558  
G1 X49.756 Y8.593  
G1 X51.448 Y8.593  
G1 X51.476 Y8.588  
G1 X51.647 Y8.558  
G1 X51.732 Y8.509  
G1 X51.794 Y8.434  
G1 X51.828 Y8.342  
G1 X51.828 Y8.244  
G1 X51.803 Y8.177  
G1 X51.794 Y8.152  
G1 X51.732 Y8.077  
G1 X51.647 Y8.029  
G1 X51.476 Y7.999  
G1 X51.448 Y7.993  
G1 X50.651 Y7.993  
G1 Z-1.2 F80 
G1 X49.756 Y7.993 F190 
G1 X49.554 Y8.029  
G1 X49.47 Y8.077  
G1 X49.407 Y8.152  
G1 X49.373 Y8.244  
G1 X49.373 Y8.342  
G1 X49.407 Y8.434  
G1 X49.47 Y8.509  
G1 X49.554 Y8.558  
G1 X49.756 Y8.593  
G1 X51.448 Y8.593  
G1 X51.476 Y8.588  
G1 X51.647 Y8.558  
G1 X51.732 Y8.509  
G1 X51.794 Y8.434  
G1 X51.828 Y8.342  
G1 X51.828 Y8.244  
G1 X51.803 Y8.177  
G1 X51.794 Y8.152  
G1 X51.732 Y8.077  
G1 X51.647 Y8.029  
G1 X51.476 Y7.999  
G1 X51.448 Y7.993  
G1 X50.651 Y7.993  
G1 Z-1.6 F80 
G1 X49.756 Y7.993 F190 
G1 X49.554 Y8.029  
G1 X49.47 Y8.077  
G1 X49.407 Y8.152  
G1 X49.373 Y8.244  
G1 X49.373 Y8.342  
G1 X49.407 Y8.434  
G1 X49.47 Y8.509  
G1 X49.554 Y8.558  
G1 X49.756 Y8.593  
G1 X51.448 Y8.593  
G1 X51.476 Y8.588  
G1 X51.647 Y8.558  
G1 X51.732 Y8.509  
G1 X51.794 Y8.434  
G1 X51.828 Y8.342  
G1 X51.828 Y8.244  
G1 X51.803 Y8.177  
G1 X51.794 Y8.152  
G1 X51.732 Y8.077  
G1 X51.647 Y8.029  
G1 X51.476 Y7.999  
G1 X51.448 Y7.993  
G1 X50.651 Y7.993  
G1 Z-2 F80 
G1 X49.756 Y7.993 F190 
G1 X49.554 Y8.029  
G1 X49.47 Y8.077  
G1 X49.407 Y8.152  
G1 X49.373 Y8.244  
G1 X49.373 Y8.342  
G1 X49.407 Y8.434  
G1 X49.47 Y8.509  
G1 X49.554 Y8.558  
G1 X49.756 Y8.593  
G1 X51.448 Y8.593  
G1 X51.476 Y8.588  
G1 X51.647 Y8.558  
G1 X51.732 Y8.509  
G1 X51.794 Y8.434  
G1 X51.828 Y8.342  
G1 X51.828 Y8.244  
G1 X51.803 Y8.177  
G1 X51.794 Y8.152  
G1 X51.732 Y8.077  
G1 X51.647 Y8.029  
G1 X51.476 Y7.999  
G1 X51.448 Y7.993  
G1 X50.651 Y7.993  
G0 Z30 F10000 
G90
(Outer)
G0 X28.152 Y-0.406  
M3 S10000
G4 S3
G0 Z2  
G1 Z-0.36 F80 
G1 X53.648 Y-0.406 F190 
G1 X53.801 Y-0.399  
G1 X53.966 Y-0.385  
G1 X54.192 Y-0.35  
G1 X54.412 Y-0.286  
G1 X54.724 Y-0.172  
G1 X55 Y-0.044  
G1 X55.25 Y0.13  
G1 X55.503 Y0.342  
G1 X55.718 Y0.558  
G1 X55.893 Y0.808  
G1 X56.058 Y1.094  
G1 X56.187 Y1.37  
G1 X56.266 Y1.665  
G1 X56.324 Y1.994  
G1 X56.351 Y2.297  
G1 X56.351 Y14.291  
G1 X56.344 Y14.443  
G1 X56.33 Y14.608  
G1 X56.295 Y14.834  
G1 X56.231 Y15.054  
G1 X56.117 Y15.366  
G1 X55.988 Y15.643  
G1 X55.813 Y15.892  
G1 X55.602 Y16.145  
G1 X55.386 Y16.361  
G1 X55.136 Y16.536  
G1 X54.85 Y16.701  
G1 X54.574 Y16.83  
G1 X54.279 Y16.909  
G1 X53.95 Y16.967  
G1 X53.646 Y16.993  
G1 X2.653 Y16.993  
G1 X2.501 Y16.986  
G1 X2.336 Y16.972  
G1 X2.109 Y16.937  
G1 X1.889 Y16.873  
G1 X1.578 Y16.76  
G1 X1.301 Y16.631  
G1 X1.051 Y16.456  
G1 X0.799 Y16.244  
G1 X0.583 Y16.028  
G1 X0.408 Y15.778  
G1 X0.243 Y15.493  
G1 X0.114 Y15.216  
G1 X0.035 Y14.922  
G1 X-0.022 Y14.593  
G1 X-0.048 Y14.289  
G1 X-0.048 Y2.295  
G1 X-0.042 Y2.143  
G1 X-0.027 Y1.978  
G1 X0.007 Y1.752  
G1 X0.071 Y1.532  
G1 X0.184 Y1.22  
G1 X0.313 Y0.943  
G1 X0.488 Y0.694  
G1 X0.7 Y0.441  
G1 X0.916 Y0.225  
G1 X1.165 Y0.05  
G1 X1.451 Y-0.113  
G1 X1.727 Y-0.242  
G1 X2.022 Y-0.321  
G1 X2.351 Y-0.379  
G1 X2.655 Y-0.406  
G1 X28.152 Y-0.406  
G1 Z-0.72 F80 
G1 X53.648 Y-0.406 F190 
G1 X53.801 Y-0.399  
G1 X53.966 Y-0.385  
G1 X54.192 Y-0.35  
G1 X54.412 Y-0.286  
G1 X54.724 Y-0.172  
G1 X55 Y-0.044  
G1 X55.25 Y0.13  
G1 X55.503 Y0.342  
G1 X55.718 Y0.558  
G1 X55.893 Y0.808  
G1 X56.058 Y1.094  
G1 X56.187 Y1.37  
G1 X56.266 Y1.665  
G1 X56.324 Y1.994  
G1 X56.351 Y2.297  
G1 X56.351 Y14.291  
G1 X56.344 Y14.443  
G1 X56.33 Y14.608  
G1 X56.295 Y14.834  
G1 X56.231 Y15.054  
G1 X56.117 Y15.366  
G1 X55.988 Y15.643  
G1 X55.813 Y15.892  
G1 X55.602 Y16.145  
G1 X55.386 Y16.361  
G1 X55.136 Y16.536  
G1 X54.85 Y16.701  
G1 X54.574 Y16.83  
G1 X54.279 Y16.909  
G1 X53.95 Y16.967  
G1 X53.646 Y16.993  
G1 X2.653 Y16.993  
G1 X2.501 Y16.986  
G1 X2.336 Y16.972  
G1 X2.109 Y16.937  
G1 X1.889 Y16.873  
G1 X1.578 Y16.76  
G1 X1.301 Y16.631  
G1 X1.051 Y16.456  
G1 X0.799 Y16.244  
G1 X0.583 Y16.028  
G1 X0.408 Y15.778  
G1 X0.243 Y15.493  
G1 X0.114 Y15.216  
G1 X0.035 Y14.922  
G1 X-0.022 Y14.593  
G1 X-0.048 Y14.289  
G1 X-0.048 Y2.295  
G1 X-0.042 Y2.143  
G1 X-0.027 Y1.978  
G1 X0.007 Y1.752  
G1 X0.071 Y1.532  
G1 X0.184 Y1.22  
G1 X0.313 Y0.943  
G1 X0.488 Y0.694  
G1 X0.7 Y0.441  
G1 X0.916 Y0.225  
G1 X1.165 Y0.05  
G1 X1.451 Y-0.113  
G1 X1.727 Y-0.242  
G1 X2.022 Y-0.321  
G1 X2.351 Y-0.379  
G1 X2.655 Y-0.406  
G1 X28.152 Y-0.406  
G1 Z-1.08 F80 
G1 X53.648 Y-0.406 F190 
G1 X53.801 Y-0.399  
G1 X53.966 Y-0.385  
G1 X54.192 Y-0.35  
G1 X54.412 Y-0.286  
G1 X54.724 Y-0.172  
G1 X55 Y-0.044  
G1 X55.25 Y0.13  
G1 X55.503 Y0.342  
G1 X55.718 Y0.558  
G1 X55.893 Y0.808  
G1 X56.058 Y1.094  
G1 X56.187 Y1.37  
G1 X56.266 Y1.665  
G1 X56.324 Y1.994  
G1 X56.351 Y2.297  
G1 X56.351 Y14.291  
G1 X56.344 Y14.443  
G1 X56.33 Y14.608  
G1 X56.295 Y14.834  
G1 X56.231 Y15.054  
G1 X56.117 Y15.366  
G1 X55.988 Y15.643  
G1 X55.813 Y15.892  
G1 X55.602 Y16.145  
G1 X55.386 Y16.361  
G1 X55.136 Y16.536  
G1 X54.85 Y16.701  
G1 X54.574 Y16.83  
G1 X54.279 Y16.909  
G1 X53.95 Y16.967  
G1 X53.646 Y16.993  
G1 X2.653 Y16.993  
G1 X2.501 Y16.986  
G1 X2.336 Y16.972  
G1 X2.109 Y16.937  
G1 X1.889 Y16.873  
G1 X1.578 Y16.76  
G1 X1.301 Y16.631  
G1 X1.051 Y16.456  
G1 X0.799 Y16.244  
G1 X0.583 Y16.028  
G1 X0.408 Y15.778  
G1 X0.243 Y15.493  
G1 X0.114 Y15.216  
G1 X0.035 Y14.922  
G1 X-0.022 Y14.593  
G1 X-0.048 Y14.289  
G1 X-0.048 Y2.295  
G1 X-0.042 Y2.143  
G1 X-0.027 Y1.978  
G1 X0.007 Y1.752  
G1 X0.071 Y1.532  
G1 X0.184 Y1.22  
G1 X0.313 Y0.943  
G1 X0.488 Y0.694  
G1 X0.7 Y0.441  
G1 X0.916 Y0.225  
G1 X1.165 Y0.05  
G1 X1.451 Y-0.113  
G1 X1.727 Y-0.242  
G1 X2.022 Y-0.321  
G1 X2.351 Y-0.379  
G1 X2.655 Y-0.406  
G1 X28.152 Y-0.406  
G1 Z-1.44 F80 
G1 X53.648 Y-0.406 F190 
G1 X53.801 Y-0.399  
G1 X53.966 Y-0.385  
G1 X54.192 Y-0.35  
G1 X54.412 Y-0.286  
G1 X54.724 Y-0.172  
G1 X55 Y-0.044  
G1 X55.25 Y0.13  
G1 X55.503 Y0.342  
G1 X55.718 Y0.558  
G1 X55.893 Y0.808  
G1 X56.058 Y1.094  
G1 X56.187 Y1.37  
G1 X56.266 Y1.665  
G1 X56.324 Y1.994  
G1 X56.351 Y2.297  
G1 X56.351 Y14.291  
G1 X56.344 Y14.443  
G1 X56.33 Y14.608  
G1 X56.295 Y14.834  
G1 X56.231 Y15.054  
G1 X56.117 Y15.366  
G1 X55.988 Y15.643  
G1 X55.813 Y15.892  
G1 X55.602 Y16.145  
G1 X55.386 Y16.361  
G1 X55.136 Y16.536  
G1 X54.85 Y16.701  
G1 X54.574 Y16.83  
G1 X54.279 Y16.909  
G1 X53.95 Y16.967  
G1 X53.646 Y16.993  
G1 X2.653 Y16.993  
G1 X2.501 Y16.986  
G1 X2.336 Y16.972  
G1 X2.109 Y16.937  
G1 X1.889 Y16.873  
G1 X1.578 Y16.76  
G1 X1.301 Y16.631  
G1 X1.051 Y16.456  
G1 X0.799 Y16.244  
G1 X0.583 Y16.028  
G1 X0.408 Y15.778  
G1 X0.243 Y15.493  
G1 X0.114 Y15.216  
G1 X0.035 Y14.922  
G1 X-0.022 Y14.593  
G1 X-0.048 Y14.289  
G1 X-0.048 Y2.295  
G1 X-0.042 Y2.143  
G1 X-0.027 Y1.978  
G1 X0.007 Y1.752  
G1 X0.071 Y1.532  
G1 X0.184 Y1.22  
G1 X0.313 Y0.943  
G1 X0.488 Y0.694  
G1 X0.7 Y0.441  
G1 X0.916 Y0.225  
G1 X1.165 Y0.05  
G1 X1.451 Y-0.113  
G1 X1.727 Y-0.242  
G1 X2.022 Y-0.321  
G1 X2.351 Y-0.379  
G1 X2.655 Y-0.406  
G1 X28.152 Y-0.406  
G1 Z-1.8 F80 
G1 X53.648 Y-0.406 F190 
G1 X53.801 Y-0.399  
G1 X53.966 Y-0.385  
G1 X54.192 Y-0.35  
G1 X54.412 Y-0.286  
G1 X54.724 Y-0.172  
G1 X55 Y-0.044  
G1 X55.25 Y0.13  
G1 X55.503 Y0.342  
G1 X55.718 Y0.558  
G1 X55.893 Y0.808  
G1 X56.058 Y1.094  
G1 X56.187 Y1.37  
G1 X56.266 Y1.665  
G1 X56.324 Y1.994  
G1 X56.351 Y2.297  
G1 X56.351 Y14.291  
G1 X56.344 Y14.443  
G1 X56.33 Y14.608  
G1 X56.295 Y14.834  
G1 X56.231 Y15.054  
G1 X56.117 Y15.366  
G1 X55.988 Y15.643  
G1 X55.813 Y15.892  
G1 X55.602 Y16.145  
G1 X55.386 Y16.361  
G1 X55.136 Y16.536  
G1 X54.85 Y16.701  
G1 X54.574 Y16.83  
G1 X54.279 Y16.909  
G1 X53.95 Y16.967  
G1 X53.646 Y16.993  
G1 X2.653 Y16.993  
G1 X2.501 Y16.986  
G1 X2.336 Y16.972  
G1 X2.109 Y16.937  
G1 X1.889 Y16.873  
G1 X1.578 Y16.76  
G1 X1.301 Y16.631  
G1 X1.051 Y16.456  
G1 X0.799 Y16.244  
G1 X0.583 Y16.028  
G1 X0.408 Y15.778  
G1 X0.243 Y15.493  
G1 X0.114 Y15.216  
G1 X0.035 Y14.922  
G1 X-0.022 Y14.593  
G1 X-0.048 Y14.289  
G1 X-0.048 Y2.295  
G1 X-0.042 Y2.143  
G1 X-0.027 Y1.978  
G1 X0.007 Y1.752  
G1 X0.071 Y1.532  
G1 X0.184 Y1.22  
G1 X0.313 Y0.943  
G1 X0.488 Y0.694  
G1 X0.7 Y0.441  
G1 X0.916 Y0.225  
G1 X1.165 Y0.05  
G1 X1.451 Y-0.113  
G1 X1.727 Y-0.242  
G1 X2.022 Y-0.321  
G1 X2.351 Y-0.379  
G1 X2.655 Y-0.406  
G1 X28.152 Y-0.406  
G0 Z30 F10000 
G4 S5
M05
